X:1
T:You Leather-Headed Songsters
M:4/4
L:1/4
K:C
 d| c3/2 d/2 c3/2 G/2| E G c3/2 c/2|A/2-B/2 c d B| c3 d| c3/2 d/2 c3/2 G/4G/4|\
 E G A3/2 G/2| ^F A d3/2 e/2| d3 G| f e d3/2 G/2| e3/2 d/2 c G| A c d e|\
 d3 G| c3/2 d/2e/2-d/2c/2-B/2| c- G Ec/2-B/2|A/2-B/2 c d B| c3e/2-d/2|\
 c3/2 d/2e/2-d/2c/2-B/2| c- G Ec/2-B/2|A/2-B/2 c d B| c3||

